X: 38
T: Do tegom był myśl swą skłonił
C: Mikołaj Gomółka
%%abc-version 2.0
%%abcx-abcm2ps-target-version 5.9.1 (29 Sep 2008)
%%abc-creator hum2abc beta
%%abcx-conversion-date 2021/10/04 07:59:10
%%abc-edited-by Anna Matuszewska
%%abcx-initial-encoding-date 2020-02-08
%%humdrum-veritas 1085979923
%%humdrum-veritas-data 278653668
%%linebreak <none>
%%barnumbers 0
L: 1/4
M: C|
N: Derived from pl-wn--sd-xvi-qu-273--039_gomolka-mikolaj--do-tegom-byl-mysl-swa-sklonil.krn
%%staves [1 2 3 4]
V: 1
V: 2
V: 3 clef=alto
V: 4 clef=bass
K: F
[V:1] d4B2d2 [I:setbarnb 3][|] 
[V:2] B4B2B2 [|] 
[V:3] F4G2F2 [|] 
[V:4] B,4G,2B,2 [|] 
[V:1] c2>B2A2B4 [|] 
[V:2] A2>G2F2F2 [|] 
[V:3] F4C2D2 [|] 
[V:4] F,4F,2D,2 [|] 
[V:1] A2B2A2 [|] 
[V:2] G2F2D2F2 [|] 
[V:3] C2C2B,2C2 [|] 
[V:4] E,2F,2B,,2F,4 [|] 
[V:1] A2B2A2GA [|] 
[V:2] F2DEF2F2 [|] 
[V:3] C2D2C2C2 [|] 
[V:4] B,,2F,2F,,2 [|] 
[V:1] G2F4E2 [|] 
[V:2] D2C2D2CB, [|] 
[V:3] B,2A,2G,2G,2 [|] 
[V:4] G,,2A,,2B,,2C,2 [|] 
[V:1] F4z2F2 [|] 
[V:2] A,4z2B,2 [|] 
[V:3] F,4z2D2 [|] 
[V:4] F,,4z2B,,2 [|] 
[V:1] B2B2A3B [|] 
[V:2] D2D2D2C2 [|] 
[V:3] B,CDEF2F2 [|] 
[V:4] G,,A,,B,,C,D,E,F,G, [|] 
[V:1] cBB4A2 [|] 
[V:2] C2DE2<F2E [|] 
[V:3] EDDC/B,/C4 [|] 
[V:4] A,2B,2F,4 [|] 
[V:1] B2d2c2B2 [|] 
[V:2] D2F2F2DE [|] 
[V:3] B,2B,2A,2B,2 [|] 
[V:4] B,,2B,,2F,2G,2 [|] 
[V:1] A2>G2F2F4 [|] 
[V:2] F2>E2D2D2 [|] 
[V:3] C2>B,2A,2B,A, [|] 
[V:4] F,4F,,2B,,2 [|] 
[V:1] E2F4 [|] 
[V:2] C2>B,2A,4 [|] 
[V:3] G,F,G,2F,4 [|] 
[V:4] C,4F,,4 [|] 


